X: 62
T:I Cannot Help It Now. JaW.062
M:C|
Q:1/4=180
S:James Winder Ms, Lancashire, 1835-41
R:Reel
O:England
A:Wyresdale,Lancashire
H:1/8
Z:vmp.Chris Partington, Aug 2004
K:G
GAGe dBAG|gage d2B2|gage dBAG|AcBA G2E2:|!
|:gdBd gdcB|gefg a2A2|gdBd gdcB|AcBA G2E2:|]
